X: 1
T: L\"andler EbBbAb chords
T:Hanny Christen. Bd.VII. Bern II, Solothurn. S.46 (LD05579) orig. Eb,Bb,Ab-Dur
T: Bauernkapelle 'Edelwieiss', Faulensee (Bern)
M:3/4
L:1/8
K:Eb %%MIDI gchordon
B cd | "Eb"e3z z2 | g3z z2 | "Bb7"b3dd2 | "Eb"e4BB || "Eb"B2ge BG | "Bb7"A4 BB | B2 af dB | 
"Eb"e4 BB | B2 ge BG | "Bb7"A4 BB | B2 af dB | "Eb"e4 ff || [K:Bb] "Bb"f2 bf dB | "F7"A4ff | f2 af eA | 
"Bb"B4 ff | f2 bf dB | "F7"A4 ff | f2 af eA | "Bb"B2BA cB |: [K:Eb] "Eb"GB eg b2 | z2 g3g | "Bb7"a2a2d2 | 
z2B=A cB | AB df b2 |1 z2a3f | "Eb"g2g2e2 | z2B=A cB :|2 z2 d3f | "Eb"e2 de gf | e2z2e2 || [K:Ab]
|: "Ab"a2e3e | c2e2a2 | "Eb7"g2e3g | d2z2e2 | g2e3e | d2e2g2 |1 "Ab"a2e3a | c2z2e2 :|2 "Ab"a2 ga c'b | a2z2ef || [K:Eb]
"Eb"g2e3B | c4B2 | GB cG Bc | "Bb7"da a2d2 | a2d3B | c4B2 | AB dA Bd | "Eb"eg g2e2 | 
g2e3B | c4B2 | GB eG Be | "Bb7"da a2d2 | a2d3B | c4B2 | AB dA Bd | "Eb"e2z2e2 |] 

